src/lib/packages/icons/src/assets/filled/video-square.svg

<svg width="24" height="24" viewBox="0 0 24 24" fill="none" xmlns="http://www.w3.org/2000/svg">
<path d="M17.625 3H6.375C4.125 3 3 4.125 3 6.375V17.625C3 19.875 4.125 21 6.375 21H17.625C19.875 21 21 19.875 21 17.625V6.375C21 4.125 19.875 3 17.625 3ZM17.5 14.4419C17.5 14.7879 17.1001 14.9799 16.8301 14.7639L14.75 13.1001V14.2C14.75 15.3 14.2001 15.8501 13.1001 15.8501H8.1499C7.0499 15.8501 6.5 15.3 6.5 14.2V9.80005C6.5 8.70005 7.0499 8.1499 8.1499 8.1499H13.1001C14.2001 8.1499 14.75 8.70005 14.75 9.80005V10.8999L16.8301 9.23608C17.1001 9.02008 17.5 9.21211 17.5 9.55811V14.4419Z" fill="currentColor"/>
</svg>

<svg xmlns="http://www.w3.org/2000/svg" width="24" height="24" fill="none"><path fill="currentColor" d="M17.625 3H6.375C4.125 3 3 4.125 3 6.375v11.25C3 19.875 4.125 21 6.375 21h11.25C19.875 21 21 19.875 21 17.625V6.375C21 4.125 19.875 3 17.625 3ZM17.5 14.442c0 .346-.4.538-.67.322L14.75 13.1v1.1c0 1.1-.55 1.65-1.65 1.65H8.15c-1.1 0-1.65-.55-1.65-1.65V9.8c0-1.1.55-1.65 1.65-1.65h4.95c1.1 0 1.65.55 1.65 1.65v1.1l2.08-1.664a.412.412 0 0 1 .67.322v4.884Z"/></svg>
